_includes/svgs/github-logo.svg

<svg width="40px" height="40px" viewBox="0 0 60 60" version="1.1" xmlns="http://www.w3.org/2000/svg" xmlns:xlink="http://www.w3.org/1999/xlink" xmlns:sketch="http://www.bohemiancoding.com/sketch/ns">
  <path d="M0.336871032,30 C0.336871032,13.4314567 13.5672313,0 29.8877097,0 C46.208188,0 59.4385483,13.4314567 59.4385483,30 C59.4385483,46.5685433 46.208188,60 29.8877097,60 C13.5672313,60 0.336871032,46.5685433 0.336871032,30 Z M0.336871032,30" id="Github" fill="#333333" sketch:type="MSShapeGroup"></path>
  <path d="M18.2184245,31.9355566 C19.6068506,34.4507902 22.2845295,36.0156764 26.8007287,36.4485173 C26.1561023,36.9365335 25.3817877,37.8630984 25.2749857,38.9342607 C24.4644348,39.4574749 22.8347506,39.62966 21.5674303,39.2310659 C19.7918469,38.6717023 19.1119377,35.1642642 16.4533306,35.6636959 C15.8773626,35.772144 15.9917933,36.1507609 16.489567,36.4722998 C17.3001179,36.9955141 18.0629894,37.6500075 18.6513541,39.04366 C19.1033554,40.113871 20.0531304,42.0259813 23.0569369,42.0259813 C24.2489236,42.0259813 25.0842679,41.8832865 25.0842679,41.8832865 C25.0842679,41.8832865 25.107154,44.6144649 25.107154,45.6761142 C25.107154,46.9004355 23.4507693,47.2457569 23.4507693,47.8346108 C23.4507693,48.067679 23.9990832,48.0895588 24.4396415,48.0895588 C25.3102685,48.0895588 27.1220883,47.3646693 27.1220883,46.0918317 C27.1220883,45.0806012 27.1382993,41.6806599 27.1382993,41.0860982 C27.1382993,39.785673 27.8372803,39.3737607 27.8372803,39.3737607 C27.8372803,39.3737607 27.924057,46.3153869 27.6704022,47.2457569 C27.3728823,48.3397504 26.8360115,48.1846887 26.8360115,48.6727049 C26.8360115,49.3985458 29.0168704,48.8505978 29.7396911,47.2571725 C30.2984945,46.0166791 30.0543756,39.2072834 30.0543756,39.2072834 L30.650369,39.1949165 C30.650369,39.1949165 30.6837446,42.3123222 30.6637192,43.7373675 C30.6427402,45.2128317 30.5426134,47.0792797 31.4208692,47.9592309 C31.9977907,48.5376205 33.868733,49.5526562 33.868733,48.62514 C33.868733,48.0857536 32.8436245,47.6424485 32.8436245,46.1831564 L32.8436245,39.4688905 C33.6618042,39.4688905 33.5387911,41.6768547 33.5387911,41.6768547 L33.5988673,45.7788544 C33.5988673,45.7788544 33.4186389,47.2733446 35.2190156,47.8992991 C35.8541061,48.1209517 37.2139245,48.1808835 37.277815,47.8089257 C37.3417055,47.4360167 35.6405021,46.8814096 35.6252446,45.7236791 C35.6157088,45.0178155 35.6567131,44.6059032 35.6567131,41.5379651 C35.6567131,38.470027 35.2438089,37.336079 33.8048426,36.4323453 C38.2457082,35.9766732 40.9939527,34.880682 42.3337458,31.9450695 C42.4383619,31.9484966 42.8791491,30.5737742 42.8219835,30.5742482 C43.1223642,29.4659853 43.2844744,28.1550957 43.3168964,26.6025764 C43.3092677,22.3930799 41.2895654,20.9042975 40.9014546,20.205093 C41.4736082,17.0182425 40.8060956,15.5675121 40.4961791,15.0699829 C39.3518719,14.6637784 36.5149435,16.1145088 34.9653608,17.1371548 C32.438349,16.3998984 27.0982486,16.4712458 25.0957109,17.3274146 C21.4005522,14.6875608 19.445694,15.0918628 19.445694,15.0918628 C19.445694,15.0918628 18.1821881,17.351197 19.1119377,20.6569598 C17.8961113,22.2028201 16.9902014,23.2968136 16.9902014,26.1963718 C16.9902014,27.8297516 17.1828264,29.2918976 17.6176632,30.5685404 C17.5643577,30.5684093 18.2008493,31.9359777 18.2184245,31.9355566 Z M18.2184245,31.9355566" id="Path" fill="#FFFFFF" sketch:type="MSShapeGroup"></path>
  <path d="M59.4385483,30 C59.4385483,46.5685433 46.208188,60 29.8877097,60 C23.8348308,60 18.2069954,58.1525134 13.5216148,54.9827754 L47.3818361,5.81941103 C54.6937341,11.2806503 59.4385483,20.0777973 59.4385483,30 Z M59.4385483,30" id="reflec" fill-opacity="0.08" fill="#000000" sketch:type="MSShapeGroup"></path>
</svg>

<svg width="40" height="40" viewBox="0 0 60 60" xmlns="http://www.w3.org/2000/svg"><path d="M.337 30c0-16.57 13.23-30 29.55-30S59.44 13.43 59.44 30 46.207 60 29.887 60 .338 46.57.338 30zm0 0" fill="#333"/><path d="M18.218 31.936c1.39 2.515 4.067 4.08 8.583 4.513-.644.487-1.418 1.413-1.525 2.484-.81.523-2.44.696-3.708.297-1.775-.558-2.455-4.066-5.114-3.566-.576.108-.46.487.037.808.81.524 1.573 1.178 2.16 2.572.453 1.07 1.403 2.982 4.407 2.982 1.192 0 2.027-.143 2.027-.143s.023 2.73.023 3.793c0 1.224-1.656 1.57-1.656 2.16 0 .232.55.254.99.254.87 0 2.682-.725 2.682-1.998 0-1.01.016-4.41.016-5.006 0-1.3.7-1.712.7-1.712s.086 6.94-.168 7.872c-.297 1.094-.834.94-.834 1.427 0 .726 2.18.178 2.904-1.416.558-1.24.314-8.05.314-8.05l.596-.012s.034 3.117.014 4.542c-.02 1.476-.12 3.342.757 4.222.578.578 2.45 1.593 2.45.665 0-.54-1.026-.983-1.026-2.442V39.47c.818 0 .695 2.207.695 2.207l.06 4.102s-.18 1.493 1.62 2.12c.634.22 1.994.28 2.058-.09.064-.374-1.637-.93-1.653-2.086-.01-.706.032-1.118.032-4.186 0-3.068-.413-4.202-1.852-5.106 4.44-.455 7.19-1.55 8.53-4.487.103.003.544-1.37.487-1.37.3-1.11.462-2.42.495-3.972-.008-4.21-2.027-5.7-2.416-6.398.574-3.187-.094-4.637-.404-5.135-1.144-.406-3.98 1.045-5.53 2.067-2.528-.737-7.868-.666-9.87.19-3.695-2.64-5.65-2.235-5.65-2.235s-1.264 2.26-.334 5.565c-1.216 1.546-2.122 2.64-2.122 5.54 0 1.633.193 3.095.628 4.372-.054-.002.583 1.366.6 1.366zm0 0" fill="#fff"/><path d="M59.44 30c0 16.57-13.232 30-29.552 30-6.053 0-11.68-1.847-16.366-5.017L47.382 5.82C54.694 11.28 59.44 20.077 59.44 30zm0 0" fill-opacity=".08"/></svg>
